Papier/32x32/mimetypes/video-x-generic.svg

<?xml version="1.0" encoding="UTF-8" standalone="no"?>
<svg
   width="32"
   height="32"
   version="1"
   id="svg12"
   sodipodi:docname="gnome-mime-video-x-ms-asf.svg"
   inkscape:version="1.1.1 (3bf5ae0d25, 2021-09-20)"
   xmlns:inkscape="http://www.inkscape.org/namespaces/inkscape"
   xmlns:sodipodi="http://sodipodi.sourceforge.net/DTD/sodipodi-0.dtd"
   xmlns="http://www.w3.org/2000/svg"
   xmlns:svg="http://www.w3.org/2000/svg">
  <defs
     id="defs16" />
  <sodipodi:namedview
     id="namedview14"
     pagecolor="#505050"
     bordercolor="#ffffff"
     borderopacity="1"
     inkscape:pageshadow="0"
     inkscape:pageopacity="0"
     inkscape:pagecheckerboard="1"
     showgrid="false"
     inkscape:zoom="23.03125"
     inkscape:cx="16"
     inkscape:cy="15.97829"
     inkscape:current-layer="svg12" />
  <path
     style="opacity:0.2"
     d="M 29,27.6664 V 6.3334 C 29,5.5941 28.42,4.9994 27.7,4.9994 H 4.3 C 3.5798,4.9994 3,5.59407 3,6.3327 v 21.333 c 0,0.73867 0.5798,1.3333 1.3,1.3333 L 27.7,29 c 0.7202,0 1.3,-0.59467 1.3,-1.3333 z"
     id="path2" />
  <path
     fill="#7282d9"
     d="m29 26.667v-21.333c0-0.7393-0.58-1.334-1.3-1.334h-23.4c-0.7202 0-1.3 0.59467-1.3 1.3333v21.333c0 0.73867 0.5798 1.3333 1.3 1.3333l23.4 0.001c0.7202 0 1.3-0.59467 1.3-1.3333z"
     id="path4"
     style="fill:#673ab7" />
  <path
     style="opacity:0.2"
     d="m 10.648,12.9994 h 8.702 c 0.65,0 0.65,0.64286 0.65,0.64286 v 7.7143 c 0,0.64286 -0.65,0.64286 -0.65,0.64286 h -8.7 c 0,0 -0.65,0 -0.65,-0.64286 v -7.7143 c 0,0 0,-0.64286 0.65,-0.64286 z m 13.352,1 v 7.5 l -4,-4 z"
     id="path6" />
  <path
     fill="#fff"
     d="m10.648 12h8.702c0.65 0 0.65 0.64286 0.65 0.64286v7.7143c0 0.64286-0.65 0.64286-0.65 0.64286h-8.7s-0.65 0-0.65-0.64286v-7.7143s0-0.64286 0.65-0.64286zm13.352 1v7.5l-4-4z"
     id="path8" />
  <path
     fill="#fff"
     opacity=".2"
     d="m4.2998 4c-0.7202 0-1.2998 0.59434-1.2998 1.333v1c0-0.73867 0.5796-1.333 1.2998-1.333h23.4c0.7202 0 1.2998 0.59434 1.2998 1.333v-1c0-0.73867-0.5796-1.333-1.2998-1.333h-23.4z"
     id="path10" />
</svg>

<?xml version="1.0" encoding="UTF-8" standalone="no"?>
<svg
   width="32"
   height="32"
   version="1"
   id="svg12"
   sodipodi:docname="video-x-flic.svg"
   inkscape:version="1.1.1 (3bf5ae0d25, 2021-09-20)"
   xmlns:inkscape="http://www.inkscape.org/namespaces/inkscape"
   xmlns:sodipodi="http://sodipodi.sourceforge.net/DTD/sodipodi-0.dtd"
   xmlns="http://www.w3.org/2000/svg"
   xmlns:svg="http://www.w3.org/2000/svg">
  <g
     id="g909"
     transform="translate(0,-3e-4)">
    <path
       fill="#7282d9"
       d="M 29,26.667 V 5.334 C 29,4.5947 28.42,4 27.7,4 H 4.3 C 3.5798,4 3,4.59467 3,5.3333 v 21.333 c 0,0.73867 0.5798,1.3333 1.3,1.3333 l 23.4,10e-4 c 0.7202,0 1.3,-0.59467 1.3,-1.3333 z"
       id="path4"
       style="fill:#673ab7" />
    <path
       fill="#ffffff"
       d="M 10.648,12 H 19.35 C 20,12 20,12.64286 20,12.64286 v 7.7143 c 0,0.64286 -0.65,0.64286 -0.65,0.64286 h -8.7 c 0,0 -0.65,0 -0.65,-0.64286 v -7.7143 C 10,12.64286 10,12 10.65,12 Z M 24,13 v 7.5 l -4,-4 z"
       id="path8" />
    <path
       fill="#ffffff"
       opacity="0.2"
       d="M 4.2998,4 C 3.5796,4 3,4.59434 3,5.333 v 1 C 3,5.59433 3.5796,5 4.2998,5 h 23.4 c 0.7202,0 1.2998,0.59434 1.2998,1.333 v -1 C 28.9996,4.59433 28.42,4 27.6998,4 Z"
       id="path10" />
  </g>
  <defs
     id="defs16" />
  <sodipodi:namedview
     id="namedview14"
     pagecolor="#505050"
     bordercolor="#ffffff"
     borderopacity="1"
     inkscape:pageshadow="0"
     inkscape:pageopacity="0"
     inkscape:pagecheckerboard="1"
     showgrid="false"
     inkscape:zoom="23.03125"
     inkscape:cx="16.043419"
     inkscape:cy="15.97829"
     inkscape:current-layer="g909" />
</svg>
